img/checkbox-on-disabled.svg

<svg width="27" height="23" fill="none" xmlns="http://www.w3.org/2000/svg"><path d="M7.285 7.486l-2.829 2.829 7.783 7.783L26.171 4.166l-2.828-2.829-11.104 11.102-4.954-4.953z" fill="#6A6A6A"/><path d="M21 20c0 .542-.458 1-1 1H3c-.542 0-1-.458-1-1V3c0-.542.458-1 1-1h16.908L21.493.415A2.96 2.96 0 0020 0H3C1.35 0 0 1.35 0 3v17c0 1.65 1.35 3 3 3h17c1.65 0 3-1.35 3-3v-9.829l-2 2V20z" fill="#6A6A6A"/></svg>

<svg width="27" height="23" viewBox="0 0 27 23" fill="none" xmlns="http://www.w3.org/2000/svg">
<path d="M7.285 7.48598L4.456 10.315L12.239 18.098L26.171 4.16598L23.343 1.33698L12.239 12.439L7.285 7.48598Z" fill="#6A6A6A"/>
<path d="M21 20C21 20.542 20.542 21 20 21H3C2.458 21 2 20.542 2 20V3C2 2.458 2.458 2 3 2H19.908L21.493 0.415C21.041 0.146542 20.5257 0.00329969 20 0H3C1.35 0 0 1.35 0 3V20C0 21.65 1.35 23 3 23H20C21.65 23 23 21.65 23 20V10.171L21 12.171V20Z" fill="#6A6A6A"/>
</svg>
